!!!OTL: ES BLUEHEN DREI BLUEMCHEN
!!!ARE: Europa, Mitteleuropa, Deutschland, Hessen, Taunus
!!!SCT: E1191
!!!YEM: Copyright 1995, estate of Helmut Schaffrath.
**kern
*ICvox
*Ivox
*M2/4
*k[b-]
*F:
{8c
=1
8f
8g
8a
8b-
=2
8cc
8dd
8cc
8r}
=3
{8ff
8ee
8dd
8cc
=4
8dd
8cc
8r}
{8cc
=5
8ff
8cc
16dd
16cc
16b-
16a
=6
8b-
8dd
8cc
8r}
=7
{4b-
8cc
8a
=8
8g
8f
8r}
{8cc
=9
8ff
8cc
16dd
16cc
16b-
16a
=10
8b-
8dd
8cc
8r}
=11
{4b-
8cc
8a
=12
8g
8f
8r}
==
!!!AGN: Ansinge -, Brauchtums - Lied, Kirchen - Fest, Silvester, Namenstag, und Taufe Jesu
!!!ONB: ESAC (Essen Associative Code) Database: ERK3
!!!AMT: simple duple
!!!AIN: vox
!!!EED: Helmut Schaffrath
!!!EEV: 1.0
*-
